X:1
T:John Johnny Mick's
M:C
L:1/8
Q:80
C:Jammie MacInnis
S:Reel
K:HP
[| {gAGAG}A2{gef}ed{gef}e2{g}A{d}B|
{gAGAG}A2{gef}ed{g}B{d}G{e}G{d}B|
{gAGAG}A2{gef}ed{gef}e2{g}A{d}B|  !
{eAfA}e2{g}dB{g}d{e}G{d}G{d}B{gAGAG}A2{gef}ed{gef}e2{g}A{d}B|
{gAGAG}A2{gef}ed{g}Bd{e}G{d}B|
{g}Ae{A}ed{gef}e2{g}A{d}B|  !
{g}eg{ef}ed{g}B{d}G{e}G{d}B|] [|
e{g}A{a}ge{ag}a2A{d}B|
{gAGAG}A2{gef}ed{g}B{d}G{e}G{d}B|  !
{g}ef{a}ge{ag}a2ef|
g{a}Gg{a}fg{a}G{d}G{d}Be{g}A{a}ge{ag}a2A{d}B|
{gAGAG}A2{gef}ed{g}B{d}G{e}G{d}B|  !
{g}ef{a}gea2{GdG}af|
{g}eg{ef}ed{g}B{d}G{e}G{d}B|]

